X: 9
T: The Monaghan
R: jig
M: 6/8
L: 1/8
K: Edor
"Em"BGE FGE|BGE "D"FGA|"Em"BGE FGE|"D"AFD FGA|"Em"BGE FGE|BGE "D"FGA|"G"d2B ABG|"D"FDF AFD:|
"Em"EGB e2g|"Bm"fed "Em"edB|EGB eBG|"D"FDF AFD|"Em"EGB e2g|"Bm"fed "Em"edc|"G"~d3 cAG|"D"FDF AFD:|
"Em"g2e efe|g2a bge|~g3 "A7"~e3|"D"~f3 afd|"Em"gbg e2f|geg bge|"G"dcd ABG|"D"FDF AFD:|
"Em"EGB eBG|BGE "D"FAF|"Em"EGB eBG|"D"~F3 AGF|"Em"EGB GBd|Beg efg|"A7"~d3 A2G|"D"FDF AGF:|


Tune 67	Setting 67

